src/main/resources/icons/AllIcons/nodes/js.svg

<svg width="16" height="16" viewBox="0 0 16 16" fill="none" xmlns="http://www.w3.org/2000/svg">
<path fill-rule="evenodd" clip-rule="evenodd" d="M2 13H14V3H2V13Z" fill="#F4AF3D" fill-opacity="0.6"/>
<path fill-rule="evenodd" clip-rule="evenodd" d="M9.16732 6.80183C9.16732 6.35967 9.5408 6.2 10.214 6.2C10.2236 6.2 11.6 6.2 11.6 6.2V5C11.6 5 10.2728 5 10.232 5C8.9336 5 8 5.551 8 6.74C8 7.77743 8.50347 8.22859 9.7655 8.49929C10.6899 8.69757 10.9954 8.87436 10.9954 9.2576C10.9954 9.64085 10.5661 9.8 9.7655 9.8C9.7463 9.8 8.36 9.8 8.36 9.8V11C8.36 11 9.7559 11 9.7655 11C12.2 11 12.2 9.8 12.2 9.2576C12.2 8.49929 11.6243 7.90486 10.5904 7.57622C9.55654 7.24758 9.16732 7.24399 9.16732 6.80183Z" fill="#231F20" fill-opacity="0.7"/>
<path fill-rule="evenodd" clip-rule="evenodd" d="M3.67407 9.30525C3.94924 9.60547 4.20536 9.8 4.74416 9.8C5.37578 9.8 5.59996 9.30525 5.59996 8.95713V5H6.79996V9.30525C6.79996 10.1836 5.99201 11 4.93996 11C3.95476 11 3.37996 10.7152 2.95996 10.1836L3.67407 9.30525Z" fill="#231F20" fill-opacity="0.7"/>
</svg>

<svg width="16" height="16" viewBox="0 0 16 16" fill="none" xmlns="http://www.w3.org/2000/svg"><rect id="frame" width="16" height="16" fill="none"/><path fill-rule="evenodd" clip-rule="evenodd" d="M2 13h12V3H2v10z" fill="#F4AF3D" fill-opacity=".6"/><path fill-rule="evenodd" clip-rule="evenodd" d="M9.167 6.802c0-.442.374-.602 1.047-.602H11.6V5h-1.368C8.934 5 8 5.551 8 6.74c0 1.037.503 1.489 1.765 1.76.925.198 1.23.374 1.23.758 0 .383-.429.542-1.23.542H8.36V11h1.405C12.2 11 12.2 9.8 12.2 9.258c0-.759-.576-1.353-1.61-1.682-1.033-.328-1.423-.332-1.423-.774z" fill="#231F20" fill-opacity=".7"/><path fill-rule="evenodd" clip-rule="evenodd" d="M3.674 9.305c.275.3.531.495 1.07.495.632 0 .856-.495.856-.843V5h1.2v4.305C6.8 10.184 5.992 11 4.94 11c-.985 0-1.56-.285-1.98-.816l.714-.879z" fill="#231F20" fill-opacity=".7"/></svg>
